X: 99
%
U:~=!turn!
T: Thearlaich! nan tigeadh tu
T: Charlie! if you would only come
T: Miss Flora MacDonald
C:
O:Scotland
B:Keith Norman MacDonald : "The Skye collection of the best reels & strathspeys extant" : 1887
Z:Ralph Palmer
R:Reel
M:C|
L:1/8
K:E aeolian
[B,F] !segno!|x ~E2 (EF) BFEF | ~E2 (B^c) {/c}dBAF | ~E2 (EF) EFGA | BdAd {/G}FDDF | ~E2 (BG) BEEe |
~E2 (B^c) {/c}dBAF | ~E2 (EF) EFGA | BdAG {/G}FDDF || (Ee)e^d BEEF | (Ee)e^c {/c}dBAF |
(Ee)e^d B^cde | faef {/c}dBAF | (Ee)Be {/^c}dEBE | (Ee)Be {/^c}dBAF | EeBe {^c}deBe | faef {/^c}dBAF !segno!|]


